!!!!SEGMENT: pl-kk--kk-i-487--011_anonim--gorzkie-zale-przybywajcie.krn
!!!cenid: 18xx:1366
!!!COM: Anonim
!!!COM-rismid: pe30004985
!!!CDT:
!!!CNT:
!!!OTL: Gorzkie żale przybywajcie
!!!PDT:
!!!AGN: Sacred
!!!SMS-siglum: PL-Kk
!!!SMS-shelfmark: Kk.I.487
!!!SMS-shelfwork: 011 W
!!!SMS-variant:
!!!SMS-altvar:
!!!NIFC-rismid: 1001141057
!!!URL-scan: http://repozytorium.nifc.pl/skany/pl-kk-nut--i-487
!!!ONB-nifc:
**kern	**text	**text	**kern	**text	**text	**kern	**text	**text	**kern	**text	**text
*part4	*part4	*part4	*part3	*part3	*part3	*part2	*part2	*part2	*part1	*part1	*part1
*staff4	*staff4	*staff4	*staff3	*staff3	*staff3	*staff2	*staff2	*staff2	*staff1	*staff1	*staff1
*I"Bas	*	*	*I"Tenor.	*	*	*I"alt.	*	*	*I"Sopran	*	*
*I'B	*	*	*I'T	*	*	*I'A	*	*	*I'S	*	*
*clefF4	*	*	*clefC4	*	*	*clefC3	*	*	*clefC1	*	*
*k[b-e-]	*	*	*k[b-e-]	*	*	*k[b-e-]	*	*	*k[b-e-]	*	*
*M4/4	*	*	*M4/4	*	*	*M4/4	*	*	*M4/4	*	*
*met(c)	*	*	*met(c)	*	*	*met(c)	*	*	*met(c)	*	*
=1	=1	=1	=1	=1	=1	=1	=1	=1	=1	=1	=1
*2\right	*	*	*2\right	*	*	*2\right	*	*	*2\right	*	*
!LO:TX:t=P:problem:all\right:global	!	!	!LO:TX:t=P:problem:all\right:global	!	!	!LO:TX:t=P:problem:all\right:global	!	!	!LO:TX:t=P:problem:all\right:global	!	!
!LO:TX:a:t=1.	!	!	!LO:TX:a:t=1.	!	!	!LO:TX:a:t=1.)	!	!	!LO:TX:a:t=1.	!	!
!LO:TX:t=P:problem:oznaczenie numeru utworu: "1." przed kluczem	!	!	!LO:TX:t=P:problem:oznaczenie numeru utworu: "1." przed kluczem	!	!	!LO:TX:t=P:problem:oznaczenie numeru utworu: "1.)" przed kluczem	!	!	!LO:TX:t=P:problem:oznaczenie numeru utworu: "1." przed kluczem	!	!
!	!	!	!	!	!	!	!	!	!LO:TX:t=P:problem:znaki przykluczowe:b-, ee-	!	!
(>2G\	Go-	ro-	(>2d\	Go-	ro-	(>2g\	Go-	ro-	(>2b-\	Go-	ro-
4C\)	.	.	4c\)	.	.	4e-\)	.	.	4a\)	.	.
4C\	-rzkie	-zpłyń-	4A\	-rzkie	-zpłyń-	4e-\	-rzkie	-zpłyń-	4cc\	-rzkie	-spłyń-
=2	=2	=2	=2	=2	=2	=2	=2	=2	=2	=2	=2
*	*	*	*	*	*	*^	*	*	*	*	*
1D	ża-	-cie	(>2G\	ża-	-cie	(>2d/	[<2d\	ża-	-cie	(>2b-\	ża-	-cie
.	.	.	2c\)	.	.	2f#X/)	2d\]	.	.	2a\)	.	.
=3	=3	=3	=3	=3	=3	=3	=3	=3	=3	=3	=3	=3
2G\	-le	sie	2B-\	-le	się	2g/	2d\	-le	się	2g\	-le	się
2r	.	.	2r	.	.	2r	2ryy	.	.	2r	.	.
*	*	*	*	*	*	*v	*v	*	*	*	*	*
=4	=4	=4	=4	=4	=4	=4	=4	=4	=4	=4	=4
2C/	przy-	me	2G/	przy-	me	2e-\	przy-	me	2cc\	przy-	me
2D\	-by-	żre-	2G/	-by-	żre-	2d\	-by-	żre-	2b-\	-by-	źre-
=5	=5	=5	=5	=5	=5	=5	=5	=5	=5	=5	=5
*	*	*	*	*	*	*^	*	*	*	*	*
2D\	-waj-	-ni-	(<4G/	-waj-	-ni-	2d/	2d\	-waj-	-ni-	2a\	-waj-	-ni-
.	.	.	4F#X/)	.	.	.	.	.	.	.	.	.
4G\	-cje	-ce	4G/	-cje	-ce	4d/	4B-\	-cje	-ce	4g\	-cje	-ce
4r	.	.	4r	.	.	4r	4ryy	.	.	4r	.	.
*	*	*	*	*	*	*v	*v	*	*	*	*	*
=6	=6	=6	=6	=6	=6	=6	=6	=6	=6	=6	=6
2BB-/	ser-	to-	2B-\	ser-	to-	2fn\	ser-	to-	2dd\	ser-	to-
2B-\	-ce.	-czcie	2d\	-ca	-czcie	2f\	-ca	-czcie	2dd\	-ca	-czcje
!	!	!	!	!	!	!LO:LB:g=original	!	!	!	!	!
=7	=7	=7	=7	=7	=7	=7	=7	=7	=7	=7	=7
2A\	na-	smu-	2e-\	na-	smu-	2f\	na-	smu-	2cc\	na-	smu-
2A\	-sze	-tnych	2d\	-sze	-tnych	2f\	-sze	-tnych	2cc\	-sze	-tnych
!LO:LB:g=original	!	!	!LO:LB:g=original	!	!	!	!	!	!LO:LB:g=original	!	!
=8	=8	=8	=8	=8	=8	=8	=8	=8	=8	=8	=8
(>2B-\	prze-	łez	(>2B-\	prze-	łez	(>2f\	prze-	łez	(>2dd\	prze-	łez
4A\)	.	.	4d\)	.	.	4f#X\)	.	.	4cc\)	.	.
4G\	-ni-	kry-	4d\	-ni-	kry-	4g\	-ni-	kry-	4b-\	-ni-	kry-
=9	=9	=9	=9	=9	=9	=9	=9	=9	=9	=9	=9
2D\	-kaj-	-ni-	2d\	-kaj-	-ni-	2f#X\	-kaj-	-ni-	2a\	-kaj-	-ni-
4D\	-cie	-ce	4d\	-cie	-ce	4f#\	-cje	-ce	4a\	-cje	-ce
4r	.	.	4r	.	.	4r	.	.	4r	.	.
=10	=10	=10	=10	=10	=10	=10	=10	=10	=10	=10	=10
(>2G\	ser-	to-	(>2d\	ser-	to-	(>4g\	ser-	to-	(>2b-\	ser-	to-
.	.	.	.	.	.	2d\)	.	.	.	.	.
4F#X\)	.	.	4c\)	.	.	.	.	.	4a\)	.	.
4F#\	-ca	-czcie	4A\	-ca	-czcie	4d\	-ca	-czcie	4cc\	-ca	-czcie
=11	=11	=11	=11	=11	=11	=11	=11	=11	=11	=11	=11
(>2G\	na-	smu-	2G\	na-	smu-	(>2d\	na-	smu-	(>2b-\	na-	smu-
2D\)	.	.	2c\	.	.	2f#X\)	.	.	2a\)	.	.
=12	=12	=12	=12	=12	=12	=12	=12	=12	=12	=12	=12
2E-\	-sze	-tnych	2B-\	-sze	-tnych	2g\	-sze	-tnych	2g\	-sze	-tnych
2r	.	.	2r	.	.	2r	.	.	2r	.	.
=13	=13	=13	=13	=13	=13	=13	=13	=13	=13	=13	=13
2C/	prze-	łez	2G/	prze-	łez	2e-\	prze-	łez	2cc\	prze-	łez
2D\	-ni-	kry-	2G/	-ni-	kry-	2d\	-ni-	kry-	2b-\	-ni-	kry-
=14	=14	=14	=14	=14	=14	=14	=14	=14	=14	=14	=14
*^	*	*	*	*	*	*^	*	*	*	*	*
2D\	2ryy	-kaj-	-ni-	(<4G/	-kaj-	-ni-	(<4.d/	2d\	-kaj-	-ni-	2a\	-kaj-	-ni-
.	.	.	.	4F#X/)	.	.	.	.	.	.	.	.	.
.	.	.	.	.	.	.	8c\)	.	.	.	.	.	.
4G/ 4GG	4GG\	-cie	-ce	4G/	-cje	-ce	4d/	4B-\	-cie	-ce	4g\	-cje	-ce
4r	4r	.	.	4r	.	.	4r	4ryy	.	.	4r	.	.
*v	*v	*	*	*	*	*	*v	*v	*	*	*	*	*
==	==	==	==	==	==	==	==	==	==	==	==
*-	*-	*-	*-	*-	*-	*-	*-	*-	*-	*-	*-
!!!system-decoration: [(s1,s2,s3,s4)]
!!!RDF**kern: > = above
!!!RDF**kern: < = below
!!!EED: Mateusz Mrugas
!!!EST: 2021-01-19
!!!ENC: Tomasz Grochalski
!!!END: 2021-01-10
